!!!!SEGMENT: pl-sa--47-a-i-47_ruth-christian-joseph--supernae-mentes-astra-regentes.krn
!!!cenid: 17xx:547
!!!COM: Ruth, Christian Joseph
!!!COM-rismID: pe41010076
!!!CDT:
!!!CNT:
!!!OTL: Supernae mentes astra regentes
!!!PDT:
!!!AGN: Sacred
!!!SMS-siglum: PL-SA
!!!SMS-shelfmark: 47/A I 47
!!!SMS-shelfwork: W
!!!SMS-variant:
!!!SMS-altvar:
!!!NIFC-rismSourceID: 1001029923
!!!NIFC-rismChildID: 1001029923
!!!NIFC-islandoraID:
!!!URL-pdf-islandora:
!!!URL-scan: https://bc.bdsandomierz.pl/dlibra/publication/1295/edition/1263/content @EN{Scan in the Sandomierz Diocese Digital Library} @PL{Skany w portalu Cyfrowa Biblioteka Diecezjalna w Sandomierzu}
!!!ONB-nifc:
!!!AIN: 1 empty 1 viola 2 violn 1 vox
!!!key:
**kern	**fba	**kern	**dynam	**kern	**dynam	**kern	**dynam	**kern	**text
*part5	*part5	*part4	*part4	*part3	*part3	*part2	*part2	*part1	*part1
*staff5	*	*staff4	*	*staff3	*	*staff2	*	*staff1	*staff1
*Iempty	*	*Iviola	*	*Ivioln	*	*Ivioln	*	*Ivox	*
*I"Fundamento Generali	*	*I"Alto Viola Neceſsaria	*	*I"Violino Secundo	*	*I"Violino Primo	*	*I"Canto ſolo	*
*I'org	*	*I'vla	*	*I'vn 2	*	*I'vn 1	*	*I'C	*
*group3	*	*group2	*	*group2	*	*group2	*	*group1	*
*clefF4	*	*clefC3	*	*clefG2	*	*clefG2	*	*clefC1	*
*Trd0c0	*	*	*	*	*	*	*	*	*
*k[f#]	*	*k[f#]	*	*k[f#]	*	*k[f#]	*	*k[f#]	*
*G:	*	*G:	*	*G:	*	*G:	*	*G:	*
*M3/8	*	*M3/8	*	*M3/8	*	*M3/8	*	*M3/8	*
*>[A,B,A]	*	*>[A,B,A]	*	*>[A,B,A]	*	*>[A,B,A]	*	*>[A,B,A]	*
=1	=1	=1	=1	=1	=1	=1	=1	=1	=1
*>A	*	*>A	*	*>A	*	*>A	*	*>A	*
!LO:TX:a:t=P:problem=krzyżyk przy nazwie głosu	!	!LO:TX:a:t=P:problem=krzyżyk i znak zapytania przy nazwie głosu	!	!LO:TX:a:t=P:problem=krzyżyk i znak zapytania przy nazwie głosu	!	!LO:TX:a:t=P:problem=krzyżyk i znak zapytania przy nazwie głosu	!	!LO:TX:a:t=P:problem=krzyżyk i znak zapytania przy nazwie głosu	!
!LO:TX:a:t=[segno]	!	!LO:TX:a:t=[segno]	!	!LO:TX:a:t=[segno]	!	!LO:TX:a:t=[segno]	!	!LO:TX:a:t=[segno]	!
!LO:TX:a:t=All(egr)o	!	!LO:TX:a:t=All(egr)o	!	!LO:TX:a:t=All(egr)o	!	!LO:TX:a:t=All(egr)o	!	!LO:TX:a:t=All(egr)o	!
!LO:TX:a:B:t=Aria	!	!LO:TX:a:B:t=Aria	!	!LO:TX:a:B:t=Aria	!	!LO:TX:a:B:t=Aria.	!	!LO:N:vis=00	!
8G\L	.	8.B/L	.	8.dd\L	.	8.dd\L	.	1.r	.
8G\	.	.	.	.	.	.	.	.	.
.	.	16c/K	.	16ee\K	.	16ee\K	.	.	.
8G\J	.	8B/J	.	8dd\J	.	8dd\J	.	.	.
=2	=2	=2	=2	=2	=2	=2	=2	=2	=2
8B\L	.	8d\L	.	8gg\L	.	8gg\L	.	.	.
8B\	.	8g\	.	8dd\	.	8dd\	.	.	.
8A\J	.	8f#\J	.	8cc\J	.	8cc\J	.	.	.
=3	=3	=3	=3	=3	=3	=3	=3	=3	=3
*	*	*	*	*Xtuplet	*	*Xtuplet	*	*	*
!LO:TX:a:t=P:problem=mixed beam	!	!	!	!LO:TX:a:t=P:problem=klamra łukowa	!	!LO:TX:a:t=P:problem=klamra łukowa	!	!	!
!	!	!	!	!LO:TX:a:t=P:global:problem=brak oznaczenia trioli	!	!LO:TX:a:t=P:global:problem=brak oznaczenia trioli	!	!	!
8G\L	.	8d\L	.	(24b\LL	.	(24b\LL	.	.	.
.	.	.	.	24cc\	.	24cc\	.	.	.
.	.	.	.	24dd\JJ)	.	24dd\JJ)	.	.	.
8C/	.	8e\	.	8cc\L	.	8cc\L	.	.	.
8D/J	.	8f#\J	.	8a\J	.	8a\J	.	.	.
=4	=4	=4	=4	=4	=4	=4	=4	=4	=4
!LO:TX:a:t=P:problem=mixed beam	!	!	!	!LO:TX:a:t=P:problem=klamra łukowa	!	!	!	!	!
8G\L	.	8d\L	.	(24b/LL	.	24b/LL	.	.	.
.	.	.	.	24a/	.	24a/	.	.	.
.	.	.	.	24g/JJ)	.	24g/JJ	.	.	.
8C/	.	8e\	.	8g/L	.	8g/L	.	.	.
8D/J	.	8A\J	.	8f#/J	.	8f#/J	.	.	.
=5	=5	=5	=5	=5	=5	=5	=5	=5	=5
!	!	!LO:TX:a:t=P:problem=mixed beam	!	!	!	!	!	!LO:N:vis=00	!
8GG/L	.	16B/LL	.	16g/LL	.	16g/LL	.	1.r	.
.	.	16c/J	.	16e/J	.	16e/J	.	.	.
8BB/	.	8G/	.	8d/	.	8d/	.	.	.
8AA/J	.	8f#\J	.	8c/J	.	8c/J	.	.	.
=6	=6	=6	=6	=6	=6	=6	=6	=6	=6
8GG/L	.	8d\L	.	24B/LL	.	24B/LL	.	.	.
.	.	.	.	24c/	.	24c/	.	.	.
.	.	.	.	24d/JJ	.	24d/JJ	.	.	.
!	!	!	!	!LO:TX:a:t=P:problem=mixed beam	!	!LO:TX:a:t=P:problem=mixed beam	!	!	!
8BB/	.	8d\	.	8G/L	.	8G\L	.	.	.
8C/J	.	8g\J	.	8ee\J	.	8ee/J	.	.	.
=7	=7	=7	=7	=7	=7	=7	=7	=7	=7
!	!	!	!	!LO:TX:a:t=P:problem=klamra łukowa	!	!LO:TX:a:t=P:problem=klamra łukowa	!	!	!
8BB/L	.	8g\L	.	(24dd\LL	.	(24dd\LL	.	.	.
.	.	.	.	24cc\	.	24cc\	.	.	.
.	.	.	.	24b\JJ)	.	24b\JJ)	.	.	.
8BB/	.	8g\	.	8dd\L	.	8dd\L	.	.	.
8BB/J	.	8g\J	.	8gg\J	.	8gg\J	.	.	.
=8	=8	=8	=8	=8	=8	=8	=8	=8	=8
!	!	!	!	!LO:TX:a:t=P:problem=klamra łukowa	!	!	!	!	!
8AA/L	.	8f#\L	.	(24cc\LL	.	24cc\LL	.	.	.
.	.	.	.	24b\	.	24b\	.	.	.
.	.	.	.	24a\JJ)	.	24a\JJ	.	.	.
8AA/	.	8f#\	.	16ff#\LL	.	16ff#\LL	.	.	.
.	.	.	.	16aa\	.	16aa\	.	.	.
8AA/J	.	8f#\J	.	16ff#\	.	16ff#\	.	.	.
.	.	.	.	16cc\JJ	.	16cc\JJ	.	.	.
!	!	!	!	!LO:LB:g=original	!	!LO:LB:g=original	!	!	!
=9	=9	=9	=9	=9	=9	=9	=9	=9	=9
!	!	!	!	!LO:TX:a:t=P:problem=klamra łukowa	!	!	!	!LO:N:vis=00	!
8GG/L	.	8d\L	.	(24b\LL	.	24b\LL	.	1.r	.
.	.	.	.	24cc\	.	24cc\	.	.	.
.	.	.	.	24dd\JJ)	.	24dd\JJ	.	.	.
8BB/	.	8d\	.	8g/L	.	8g/L	.	.	.
8D/J	.	8A\J	.	8f#/J	.	8f#/J	.	.	.
!LO:LB:g=original	!	!	!	!	!	!	!	!	!
=10	=10	=10	=10	=10	=10	=10	=10	=10	=10
8G\L	.	8B/L	.	16g\LL	.	16g/LL	.	.	.
.	.	.	.	16b\	.	16b/	.	.	.
8G\	.	8B/	.	16dd\	.	16dd/	.	.	.
.	.	.	.	(16b\	.	16b/	.	.	.
8G\J	.	8B/J	.	16a\	.	16a/	.	.	.
.	.	.	.	16g\JJ)	.	16g/JJ	.	.	.
!	!	!LO:LB:g=original	!	!	!	!	!	!	!
=11	=11	=11	=11	=11	=11	=11	=11	=11	=11
8F#\L	6	8A/L	.	16f#/LL	.	16f#/LL	.	.	.
.	.	.	.	16a/JJ	.	16a/JJ	.	.	.
8F#\	.	8d/	.	4dd\	.	4dd\	.	.	.
8F#\J	.	8A/J	.	.	.	.	.	.	.
=12	=12	=12	=12	=12	=12	=12	=12	=12	=12
8E\L	6	8G/L	.	16e/LL	.	16e/LL	.	.	.
.	.	.	.	16g/	.	16g/	.	.	.
8E\	.	8G/	.	16cc/	.	16cc/	.	.	.
.	.	.	.	16g/	.	16g/	.	.	.
8E\J	.	8G/J	.	16f#/	.	16f#/	.	.	.
.	.	.	.	16e/JJ	.	16e/JJ	.	.	.
=13	=13	=13	=13	=13	=13	=13	=13	=13	=13
!	!	!	!	!	!	!	!	!LO:N:vis=00	!
8D\L	6	8f#\L	.	16d/LL	.	16d/LL	.	1.r	.
.	.	.	.	16f#/JJ	.	16f#/JJ	.	.	.
8D\	.	8f#\	.	4b\	.	4b\	.	.	.
8D\J	.	8f#\J	.	.	.	.	.	.	.
=14	=14	=14	=14	=14	=14	=14	=14	=14	=14
8C/L	.	8e\L	.	8r	.	8r	.	.	.
8C/	.	8g\	.	8ee\L	.	8ee\L	.	.	.
8C/J	.	8e\J	.	8cc\J	.	8cc\J	.	.	.
=15	=15	=15	=15	=15	=15	=15	=15	=15	=15
8BB/L	.	8g\L	.	16dd\LL	.	16dd\LL	.	.	.
.	.	.	.	16ff#\JJ	.	16ee\JJ	.	.	.
8BB/	.	8d\	.	4gg\	.	4ff#\	.	.	.
8BB/J	.	8d\J	.	.	.	.	.	.	.
=16	=16	=16	=16	=16	=16	=16	=16	=16	=16
!LO:TX:a:t=P:problem=mixed beam	!	!	!	!	!	!	!	!	!
8AA\L	.	8e\L	.	(8cc\L	.	(8cc\L	.	.	.
8D/	6 4	8g\	.	8b\	.	8b\	.	.	.
8DD\J	3	8f#\J	.	8a\J)	.	8a\J)	.	.	.
=17	=17	=17	=17	=17	=17	=17	=17	=17	=17
!	!	!	!	!	!	!	!	!LO:N:vis=00	!
8GG/L	.	8d\L	.	8b\L	.	8b\L	.	1.r	.
8D/	.	8f#\	.	8a\	.	8a\	.	.	.
8BB/J	.	8g\J	.	[>8dd\J	.	[>8dd\J	.	.	.
=18	=18	=18	=18	=18	=18	=18	=18	=18	=18
!	!	!	!	!LO:N:xstem:cue	!	!LO:N:xstem:cue	!	!	!
8BB/L	.	8g\L	.	16dd\LL]	.	16dd\LL]	.	.	.
.	.	.	.	16cc\	.	16cc\	.	.	.
8BB/	.	8g\	.	16b\	.	16b\	.	.	.
.	.	.	.	16a\	.	16a\	.	.	.
8BB/J	.	8g\J	.	16g\	.	16g\	.	.	.
!	!	!	!	!LO:TX:a:t=♭	!	!	!	!	!
.	.	.	.	[16f-y\JJ	.	16f-X\JJ	.	.	.
=19	=19	=19	=19	=19	=19	=19	=19	=19	=19
!	!	!	!	!LO:TX:a:t=P:problem=mixed beam	!	!LO:TX:a:t=P:problem=mixed beam	!	!	!
8C/L	.	8d\L	.	8f-X/L]	.	8f#/L	.	.	.
8C/	.	8g\	.	8e/	.	8e/	.	.	.
8C/J	.	8g\J	.	[>8ee\J	.	[>8ee\J	.	.	.
=20	=20	=20	=20	=20	=20	=20	=20	=20	=20
!	!	!	!	!LO:N:xstem:cue	!	!LO:N:xstem:cue	!	!	!
8C/L	6	8a\L	.	16ee\LL]	.	16ee\LL]	.	.	.
.	.	.	.	16dd\	.	16dd\	.	.	.
8C/	.	8a\	.	16cc\	.	16cc\	.	.	.
.	.	.	.	16b\	.	16b\	.	.	.
8C/J	.	8a\J	.	16a\	.	16a\	.	.	.
.	.	.	.	16g\JJ	.	16g\JJ	.	.	.
!	!	!	!	!	!	!LO:LB:g=original	!	!	!
=21	=21	=21	=21	=21	=21	=21	=21	=21	=21
!	!	!	!	!LO:TX:a:t=P:problem=mixed beam	!	!LO:TX:a:t=P:problem=mixed beam	!	!LO:N:vis=00	!
8D\L	.	8e\L	.	8g/L	.	(8g/L	.	1.r	.
8D\	.	8a\	.	8f#/	.	8f#/)	.	.	.
8F#\J	.	8a\J	.	16dd\L	.	16dd\L	.	.	.
.	.	.	.	16cc\JJ	.	16cc\JJ	.	.	.
!	!	!	!	!LO:LB:g=original	!	!	!	!	!
=22	=22	=22	=22	=22	=22	=22	=22	=22	=22
!	!	!	!	!LO:TX:a:t=P:problem=klamra łukowa	!	!	!	!	!
8G\L	.	8d\L	.	(24b/LL	.	24b/LL	.	.	.
.	.	.	.	24a/	.	24a/	.	.	.
.	.	.	.	24g/JJ)	.	24g/JJ	.	.	.
8B\	.	8d\	.	8g/L	.	8g/L	.	.	.
8d\J	.	8A\J	.	8f#/J	.	8f#/J	.	.	.
!LO:LB:g=original	!	!	!	!	!	!	!	!	!
=23	=23	=23	=23	=23	=23	=23	=23	=23	=23
!LO:TX:a:t=P:problem=mixed beam	!	!	!	!LO:TX:a:t=P:problem=mixed beam	!	!LO:TX:a:t=P:problem=mixed beam	!	!	!
8GG/L	.	8B/L	.	8g/L	.	8g/L	.	.	.
8E\	6	8c/	.	(8gg\	.	(8gg\	.	.	.
8D\J	6	8B/J	.	8ff#\J)	.	8ff#\J)	.	.	.
!	!	!LO:LB:g=original	!	!	!	!	!	!	!
=24	=24	=24	=24	=24	=24	=24	=24	=24	=24
!LO:TX:a:t=P:problem=mixed beam	!	!	!	!	!	!	!	!	!
8C/L	.	8e\L	.	8r	.	8r	.	.	.
8c\	.	8g\	.	(8ee\L	.	(8ee\L	.	.	.
8B\J	.	8g\J	.	8dd\J)	.	8dd\J)	.	.	.
=25	=25	=25	=25	=25	=25	=25	=25	=25	=25
!LO:TX:a:t=P:problem=mixed beam	!	!	!	!	!	!	!	!LO:N:vis=00	!
8AA/L	.	8c\L	.	8r	.	8r	.	1.r	.
8A\	.	8f#\	.	(8cc\L	.	8cc\L	.	.	.
8G\J	.	8d\J	.	8b\J)	.	[8b\J	.	.	.
=26	=26	=26	=26	=26	=26	=26	=26	=26	=26
8D\L	6 4	8e\L 8g	.	8b\L	.	8b\L]	.	.	.
8D\	#	8f#\	.	8a\	.	8a\	.	.	.
8F#\J	.	8a\J	.	8cc\J	.	8cc\J	.	.	.
=27	=27	=27	=27	=27	=27	=27	=27	=27	=27
!	!	!	!	!LO:TX:a:t=P:problem=klamra łukowa	!	!LO:TX:a:t=P:problem=klamra łukowa	!	!	!
8G\L	.	8d\L	.	(24b/LL	.	(24b/LL	.	.	.
.	.	.	.	24a/	.	24a/	.	.	.
.	.	.	.	24g/JJ)	.	24g/JJ)	.	.	.
8F#\	.	8d\	.	8a/L	.	8a/L	.	.	.
8D\J	.	8f#\J	.	8cc/J	.	8cc/J	.	.	.
=28	=28	=28	=28	=28	=28	=28	=28	=28	=28
!	!	!	!	!LO:TX:a:t=P:problem=klamra łukowa	!	!LO:TX:a:t=P:problem=klamra łukowa	!	!	!
8G\L	.	8d\L	.	(24b\LL	.	(24b\LL	.	.	.
.	.	.	.	24cc\	.	24cc\	.	.	.
.	6	.	.	24dd\JJ)	.	24dd\JJ)	.	.	.
8E\	.	8g\	.	8cc\L	.	8cc\L	.	.	.
8C#X\J	7	16e\L	.	[8b\J	.	8b\J	.	.	.
.	.	[16g\JJ	.	.	.	.	.	.	.
=29	=29	=29	=29	=29	=29	=29	=29	=29	=29
!	!	!	!	!	!	!	!	!LO:N:vis=00	!
8D\L	.	8g\L]	.	8b/L]	.	8b/L	.	1.r	.
8D\	.	8f#\	.	8a/	.	8a/	.	.	.
8F#\J	.	8a\J	.	8cc/J	.	8cc/J	.	.	.
=30	=30	=30	=30	=30	=30	=30	=30	=30	=30
8G\L	.	8d\L	.	24b/LL	.	(24b/LL	.	.	.
.	.	.	.	24a/	.	24a/	.	.	.
.	.	.	.	24g/JJ	.	24g/JJ)	.	.	.
8B\	.	8d\	.	8g/L	.	8g/L	.	.	.
8d\J	.	8A\J	.	8f#/J	.	8f#/J	.	.	.
=31	=31	=31	=31	=31	=31	=31	=31	=31	=31
8G\L	.	8d\L	.	16g\LL	.	16g/LL	.	.	.
.	.	.	.	16cc#X\JJ	.	16cc#X/JJ	.	.	.
8F#\	6	8a\	.	8dd\L	.	8dd\L	.	.	.
8D\J	.	8f#\J	.	8cc-X\J	.	8cc-X\J	.	.	.
!	!	!	!	!	!	!LO:LB:g=original	!	!	!
=32	=32	=32	=32	=32	=32	=32	=32	=32	=32
!	!	!	!	!	!	!LO:TX:a:t=P:problem=brak taktu w źródle	!	!	!
8G\L	.	8d\L	.	16b\LL	.	4.ryy	.	.	.
.	.	.	.	16ff#\JJ	.	.	.	.	.
8B\	6	8d\	.	4gg\	.	.	.	.	.
8B\J	.	8d\J	.	.	.	.	.	.	.
=33	=33	=33	=33	=33	=33	=33	=33	=33	=33
!LO:TX:a:t=P:problem=mixed beam	!	!	!	!	!	!	!	!LO:N:vis=0	!
8c\L	.	8g\L	.	(24ee\LL	.	24ee\LL	.	2.r	.
.	.	.	.	24dd\	.	24dd\	.	.	.
.	.	.	.	24cc\JJ)	.	24cc\JJ	.	.	.
8d\	.	8g\	.	8b/L	.	8b\L	.	.	.
8D/J	.	8f#\J	.	8a/J	.	8aT\J	.	.	.
!	!	!	!	!LO:LB:g=original	!	!	!	!	!
=34	=34	=34	=34	=34	=34	=34	=34	=34	=34
!LO:TX:a:t=P:problem=mixed beam	!	!LO:TX:a:t=P:problem=mixed beam	!	!	!	!	!	!	!
8G\L	.	8g\L	.	8g/L	.	8g/L	.	.	.
8GG/J	.	8G/J	.	8G/J	.	8G/J	.	.	.
8r	.	8r	.	8r	.	8r	.	.	.
=35	=35	=35	=35	=35	=35	=35	=35	=35	=35
!LO:N:vis=00	!	!	!LO:DY:a:t=po&colon;	!	!LO:DY:a:t=po&colon;	!	!LO:DY:a:t=po	!	!
1.r	.	8G/L	p	8d/L	p	8b\L	p	8.dd\L	ſu-
.	.	8G/	.	8d/	.	8b\	.	.	.
.	.	.	.	.	.	.	.	16ee\K	.
.	.	8G/J	.	8d/J	.	8b\J	.	8dd\J	.
=36	=36	=36	=36	=36	=36	=36	=36	=36	=36
.	.	8G/L	.	8b/L	.	8dd\L	.	8gg\	-per-
.	.	8B/	.	8g/	.	8dd\	.	8dd\L	-na(e)
.	.	8A/J	.	8f#/J	.	8dd\J	.	8cc\J	.
=37	=37	=37	=37	=37	=37	=37	=37	=37	=37
!	!	!	!	!LO:TX:a:t=P:problem=mixed beam	!	!	!	!	!
.	.	8G/L	.	8d/L	.	16b\LL	.	16b\LL	men-
.	.	.	.	.	.	16g\	.	16cc\JJ	.
.	.	8G/	.	8d/	.	16b\	.	8dd\	-tes
.	.	.	.	.	.	16dd\J	.	.	.
.	.	8B/J	.	8dd\J	.	8gg\J	.	8r	.
!	!	!LO:LB:g=original	!	!	!	!	!	!	!
=38	=38	=38	=38	=38	=38	=38	=38	=38	=38
.	.	4A/	.	8ee\L	.	16cc\LL	.	8cc\	Aſ-
.	.	.	.	.	.	16ff#\J	.	.	.
.	.	.	.	8dd\	.	8gg\	.	8b\	-tra
.	.	8d\	.	8cc\J	.	8ff#\J	.	8a\	re-
!LO:LB:g=original	!	!	!	!	!	!	!	!	!
=39	=39	=39	=39	=39	=39	=39	=39	=39	=39
!	!	!	!	!	!LO:DY:a:t=fo&colon;	!	!LO:DY:a:t=fo&colon;	!	!
8G\L	.	8B\L	.	16dd\LL	f	16g/LL	f	8b\	-gen-
.	.	.	.	16b\	.	16b/	.	.	.
8G\	.	8d\	.	16dd\	.	16dd/	.	8g\	-tes
.	.	.	.	(16b\	.	(16b/	.	.	.
8G\J	.	8d\J	.	16a\	.	16a/	.	8r	.
.	.	.	.	16g\JJ)	.	16g/JJ)	.	.	.
!	!	!	!	!	!	!	!	!LO:LB:g=original	!
=40	=40	=40	=40	=40	=40	=40	=40	=40	=40
!	!	!	!	!	!	!	!	!LO:N:vis=00	!
8F#\L	.	8A/L	.	16f#/LL	.	16f#/LL	.	1.r	.
.	.	.	.	16a/JJ	.	16a/JJ	.	.	.
8F#\	.	8A/	.	4dd\	.	4dd/	.	.	.
8F#\J	.	8A/J	.	.	.	.	.	.	.
=41	=41	=41	=41	=41	=41	=41	=41	=41	=41
8E\L	6	8g\L	.	16e/LL	.	16e/LL	.	.	.
.	.	.	.	16g/	.	16g/	.	.	.
8E\	.	8g\	.	16cc/	.	16cc/	.	.	.
.	.	.	.	16g/	.	(16g/	.	.	.
8E\J	.	8g\J	.	16f#/	.	16f#/	.	.	.
.	.	.	.	16e/JJ	.	16e/JJ)	.	.	.
=42	=42	=42	=42	=42	=42	=42	=42	=42	=42
8D\L	.	8f#\L	.	16d/LL	.	16d/LL	.	.	.
.	.	.	.	16f#/JJ	.	16f#/JJ	.	.	.
8D\	.	8f#\	.	4b/	.	4b/	.	.	.
8D\J	.	8f#\J	.	.	.	.	.	.	.
=43	=43	=43	=43	=43	=43	=43	=43	=43	=43
8C/L	.	8e\L	.	8r	.	8r	.	.	.
8C/	.	8g\	.	8ee\L	.	8ee\L	.	.	.
8C/J	.	8e\J	.	8cc\J	.	8cc\J	.	.	.
=44	=44	=44	=44	=44	=44	=44	=44	=44	=44
!	!	!	!	!	!	!	!	!LO:N:vis=00	!
8BB/L	.	8g\L	.	16dd\LL	.	16dd\LL	.	1.r	.
.	.	.	.	16ff#\JJ	.	16ff#\JJ	.	.	.
8BB/	.	8d\	.	4gg\	.	4gg\	.	.	.
8BB/J	.	8d\J	.	.	.	.	.	.	.
!	!	!	!	!	!	!LO:LB:g=original	!	!	!
=45	=45	=45	=45	=45	=45	=45	=45	=45	=45
!LO:TX:a:t=P:problem=mixed beam	!	!	!	!	!	!	!	!	!
8AA/L	.	8e\L	.	(8cc\L	.	(8cc\L	.	.	.
8D\	4	8g\	.	8b\	.	8b\	.	.	.
8DD/J	.	8f#\J	.	8a\J)	.	8a\J)	.	.	.
=46	=46	=46	=46	=46	=46	=46	=46	=46	=46
8GG/L	.	8d\L	.	8b/L	.	8b\L	.	.	.
8D/	.	8f#\	.	8a/	.	8a\	.	.	.
8BB/J	.	8g\J	.	[>8dd\J	.	[y8dd\J	.	.	.
!	!	!	!	!LO:LB:g=original	!	!	!	!	!
=47	=47	=47	=47	=47	=47	=47	=47	=47	=47
!	!	!	!	!	!	!LO:N:xstem:cue	!	!	!
8BB/L	.	8g\L	.	16dd/LL]	.	16dd\LL]	.	.	.
.	.	.	.	16cc/	.	16cc\	.	.	.
8BB/	.	8g\	.	16b/	.	16b\	.	.	.
.	.	.	.	16a/	.	16a\	.	.	.
8BB/J	.	8g\J	.	16g/	.	16g\	.	.	.
.	.	.	.	[16f-X/JJ	.	[16f-X\JJ	.	.	.
=48	=48	=48	=48	=48	=48	=48	=48	=48	=48
!	!	!	!	!LO:TX:a:t=P:problem=mixed beam	!	!LO:TX:a:t=P:problem=mixed beam	!	!LO:N:vis=00	!
8C/L	.	8d\L	.	8f-/L]	.	8f-/L]	.	1.r	.
8C/	.	8g\	.	8e/	.	8e/	.	.	.
8C/J	.	8g\J	.	[>8ee\J	.	[>8ee\J	.	.	.
=49	=49	=49	=49	=49	=49	=49	=49	=49	=49
!	!	!	!	!LO:N:xstem:cue	!	!LO:N:xstem:cue	!	!	!
8C/L	6	8a\L	.	16ee\LL]	.	16ee\LL]	.	.	.
.	.	.	.	16dd\	.	16dd\	.	.	.
8C/	.	8a\	.	16cc\	.	16cc\	.	.	.
.	.	.	.	16b\	.	16b\	.	.	.
8C/J	.	8a\J	.	16a\	.	16a\	.	.	.
.	.	.	.	16g\JJ	.	[16g\JJ	.	.	.
=50	=50	=50	=50	=50	=50	=50	=50	=50	=50
!	!	!	!	!LO:TX:a:t=P:problem=mixed beam	!	!LO:TX:a:t=P:problem=mixed beam	!	!	!
8D\L	.	8e\L	.	8g/L	.	8g/L]	.	.	.
8D\	.	8a\	.	8f#/	.	8f#/	.	.	.
8F#\J	.	8a\J	.	16dd\L	.	16dd\L	.	.	.
.	.	.	.	16cc\JJ	.	16cc\JJ	.	.	.
!LO:LB:g=original	!	!LO:LB:g=original	!	!	!	!	!	!	!
=51	=51	=51	=51	=51	=51	=51	=51	=51	=51
8G\L	.	8d\L	.	24b/LL	.	(24b/LL	.	.	.
.	.	.	.	24a/	.	24a/	.	.	.
.	.	.	.	24g/JJ	.	24g/JJ)	.	.	.
8B\	.	8d\	.	8g/L	.	8g/L	.	.	.
8d\J	.	8A\J	.	8f#/J	.	8f#/J	.	.	.
=52	=52	=52	=52	=52	=52	=52	=52	=52	=52
!	!	!	!	!	!	!	!	!LO:N:vis=00	!
8G\L	.	8d\L	.	16g/LL	.	16g/LL	.	1.r	.
.	.	.	.	16cc#X/JJ	.	16cc#X/JJ	.	.	.
8F#\	.	8a\	.	8dd\L	.	8dd\L	.	.	.
8D\J	.	8a\J	.	8cc#\J	.	8cc#\J	.	.	.
=53	=53	=53	=53	=53	=53	=53	=53	=53	=53
4G\	.	16b\LL	.	16b\LL	.	16b\LL	.	.	.
.	.	16a\J	.	16ff#\JJ	.	16ff#\JJ	.	.	.
.	.	8b\	.	4gg\	.	4gg\	.	.	.
8B\	.	8dd\J	.	.	.	.	.	.	.
=54	=54	=54	=54	=54	=54	=54	=54	=54	=54
!LO:TX:a:t=P:problem=mixed beam	!	!	!	!LO:TX:a:t=P:problem=klamra łukowa	!	!LO:TX:a:t=P:problem=klamra łukowa	!	!	!
8c\L	.	8g\L	.	(24ee\LL	.	(24ee\LL	.	.	.
.	.	.	.	24dd\	.	24dd\	.	.	.
.	.	.	.	24cc\J)	.	24cc\JJ)	.	.	.
8d\	.	8g\	.	8b\	.	8b\L	.	.	.
8D/J	.	8f#\J	.	8a\J	.	8a\J	.	.	.
=55	=55	=55	=55	=55	=55	=55	=55	=55	=55
!LO:TX:a:t=P:problem=mixed beam	!	!LO:TX:a:t=P:problem=mixed beam	!	!	!	!	!	!	!
8G\L	.	8g\L	.	8g/L	.	8g/L	.	.	.
8GG/J	.	8G/J	.	8G/J	.	8G/J	.	.	.
8r	.	8r	.	8r	.	8r	.	.	.
=56	=56	=56	=56	=56	=56	=56	=56	=56	=56
!LO:N:vis=00	!	!	!	!	!LO:DY:a:t=po&colon;	!	!LO:DY:a:t=po&colon;	!	!
1.r	.	8G/L	.	8d/L	p	8b\L	p	8.dd\L	ſu-
.	.	8G/	.	8d/	.	8b\	.	.	.
.	.	.	.	.	.	.	.	16ee\K	.
.	.	8G/J	.	8d/J	.	8b\J	.	8dd\J	.
!	!	!	!	!	!	!LO:LB:g=original	!	!	!
=57	=57	=57	=57	=57	=57	=57	=57	=57	=57
.	.	8G/L	.	8b/L	.	8dd\L	.	8gg\	-per-
.	.	8B/	.	8g/	.	8dd\	.	8dd\L	-na(e)
.	.	8A/J	.	8f#/J	.	8dd\J	.	8cc\J	.
=58	=58	=58	=58	=58	=58	=58	=58	=58	=58
!	!	!	!	!LO:TX:a:t=P:problem=mixed beam	!	!	!	!	!
.	.	8G/L	.	8d/L	.	16b\LL	.	16b\LL	gen-
.	.	.	.	.	.	16g\	.	16cc\JJ	.
.	.	8G/	.	8d/	.	16b\	.	8dd\	-tes
.	.	.	.	.	.	16dd\J	.	.	.
.	.	8B/J	.	8dd\J	.	8gg\J	.	8r	.
!	!	!	!	!LO:LB:g=original	!	!	!	!	!
=59	=59	=59	=59	=59	=59	=59	=59	=59	=59
.	.	4A/	.	8ee\L	.	16cc\LL	.	8cc\	Aſ-
.	.	.	.	.	.	16ff#\J	.	.	.
.	.	.	.	8dd\	.	8gg\	.	8b\	-tra
!	!	!	!	!	!	!	!	!LO:SIC:l:s=re:v	!
.	.	8d\	.	8cc\J	.	8ff#\J	.	8a\	ri-
=60	=60	=60	=60	=60	=60	=60	=60	=60	=60
!LO:N:vis=00	!	!	!	!	!	!	!	!	!
1.r	.	8B/L	.	8dd\L	.	16gg\LL	.	8b\	-gen-
.	.	.	.	.	.	16dd\	.	.	.
.	.	16G/L	.	16b\L	.	16b\	.	8g\	-tes
.	.	16A/J	.	16cc\J	.	16dd\	.	.	.
.	.	8B/J	.	8dd\J	.	16gg\	.	8r	.
.	.	.	.	.	.	16dd\JJ	.	.	.
=61	=61	=61	=61	=61	=61	=61	=61	=61	=61
!	!	!	!	!LO:TX:a:t=P:problem=mixed beam	!	!	!	!	!
.	.	8G/L	.	8ee\L	.	8b\L	.	8r	.
.	.	8B/	.	8g/	.	8dd\	.	8g/	An-
.	.	8B/J	.	8g/J	.	8dd\J	.	8g/	-ge-
=62	=62	=62	=62	=62	=62	=62	=62	=62	=62
.	.	8c/L	.	8g/L	.	8ee\L	.	4g/	-lo-
.	.	8c/	.	8g/	.	8ee\	.	.	.
.	.	8B/J	.	8g/J	.	8dd\J	.	8g/	-rum
=63	=63	=63	=63	=63	=63	=63	=63	=63	=63
!	!	!	!	!LO:TX:a:t=P:problem=mixed beam	!	!	!	!	!
.	.	8A/L	.	8e/L	.	8cc\L	.	4.cc\ss	Cho-
.	.	8A/	.	8cc\	.	8ff#\	.	.	.
.	.	8d/J	.	8a\J	.	8ff#\J	.	.	.
!	!	!	!	!	!	!	!	!LO:LB:g=original	!
=64	=64	=64	=64	=64	=64	=64	=64	=64	=64
!LO:N:vis=00	!	!	!	!	!	!	!	!	!
1.r	.	8G/L	.	8b\L	.	16gg\LL	.	(16b\LL	.
.	.	.	.	.	.	16dd\	.	16cc\JJ	.
.	.	8G/	.	8b\	.	16b\	.	4dd\)	.
.	.	.	.	.	.	16dd\	.	.	.
.	.	8G/J	.	8b\J	.	16gg\	.	.	.
.	.	.	.	.	.	16dd\JJ	.	.	.
!	!	!LO:LB:g=original	!	!	!	!	!	!	!
=65	=65	=65	=65	=65	=65	=65	=65	=65	=65
.	.	8A/L	.	8cc#X\L	.	8ee\L	.	16cc#X\LL	.
.	.	.	.	.	.	.	.	16dd\JJ	.
.	.	8A/	.	8cc#\	.	16cc#X\L	.	4ee\	.
.	.	.	.	.	.	16ee\J	.	.	.
.	.	8A/J	.	8cc#\J	.	8aa\J	.	.	.
=66	=66	=66	=66	=66	=66	=66	=66	=66	=66
.	.	8B/L	.	8dd\L	.	8gg\L	.	[4.gg\	.
.	.	8B/	.	8dd\	.	8gg\	.	.	.
.	.	8B/J	.	8dd\J	.	8gg\J	.	.	.
=67	=67	=67	=67	=67	=67	=67	=67	=67	=67
!	!	!	!	!LO:TX:a:t=P:problem=mixed beam	!	!	!	!	!
.	.	8c#X\L	.	8ee\L	.	(8gg\L	.	8gg\]	.
.	.	8d\	.	8a/	.	8ff#\)	.	8ff#\	-ri
.	.	8f#\J	.	8a/J	.	16dd\L	.	8r	.
.	.	.	.	.	.	16a\JJ	.	.	.
=68	=68	=68	=68	=68	=68	=68	=68	=68	=68
!LO:N:vis=00	!	!	!	!	!	!	!	!	!
1.r	.	4g\	.	8g/L	.	8b/L	.	8.dd\	Nu-
.	.	.	.	8f#/	.	8a/	.	.	.
.	.	.	.	.	.	.	.	16dd\	-mi-
.	.	8r	.	8e/J	.	8g/J	.	16dd\	-nis
.	.	.	.	.	.	.	.	16dd\	fa-
=69	=69	=69	=69	=69	=69	=69	=69	=69	=69
.	.	4d\	.	8f#/L	.	8a/L	.	4dd\	-vo-
.	.	.	.	8e/	.	8g/	.	.	.
.	.	8r	.	8d/J	.	8f#/J	.	8dd\	-ri
!	!	!	!	!	!	!LO:LB:g=original	!	!	!
=70	=70	=70	=70	=70	=70	=70	=70	=70	=70
!	!	!	!	!	!	!LO:TX:a:t=P:problem=mixed beam	!	!	!
.	.	4g\	.	8g/L	.	16d/LL	.	8b\L	Re-
.	.	.	.	.	.	16dd\	.	.	.
.	.	.	.	8f#/	.	16d/	.	8a\J	.
.	.	.	.	.	.	16d/	.	.	.
.	.	8r	.	8e/J	.	16d/	.	8g\	-ſo-
.	.	.	.	.	.	16dd\JJ	.	.	.
=71	=71	=71	=71	=71	=71	=71	=71	=71	=71
!	!	!	!	!	!	!LO:TX:a:t=P:problem=mixed beam	!	!	!
.	.	4d\	.	8f#/L	.	16d/LL	.	8a\L	-na-
.	.	.	.	.	.	16dd\	.	.	.
.	.	.	.	8e/	.	16d/	.	8g\J	.
.	.	.	.	.	.	16d/	.	.	.
.	.	8r	.	8d/J	.	16d/	.	8f#/	-te
.	.	.	.	.	.	16dd\JJ	.	.	.
=72	=72	=72	=72	=72	=72	=72	=72	=72	=72
!	!	!LO:TX:a:t=P:problem=mixed beam	!	!	!	!LO:TX:a:t=P:problem=mixed beam	!	!	!
4.r	.	8e\L	.	8d/L	.	8d/L	.	8gg\L	In-
.	.	8a\	.	8f#/	.	8dd\	.	8ff#\J	.
.	.	8A/J	.	8e/J	.	8cc#X\J	.	8ee\	-to-
!	!	!	!	!	!	!	!	!LO:LB:g=original	!
=73	=73	=73	=73	=73	=73	=73	=73	=73	=73
!LO:TX:a:t=P:problem=mixed beam	!	!	!LO:DY:a:t=fo&colon;	!LO:TX:a:t=P:problem=mixed beam	!LO:DY:a:t=fo&colon;	!	!LO:DY:a:t=fo&colon;	!	!
8D/L	.	8d\L	f	16f#/LL	f	16dd\LL	f	8ff#\	-na-
.	.	.	.	16gg\J	.	16bb\J	.	.	.
8d\	.	8a\	.	8ff#\	.	8aa\	.	8dd\	-te
8c#X\J	.	8a\J	.	8ee\J	.	8gg\J	.	8r	.
!	!	!	!	!LO:LB:g=original	!	!	!	!	!
=74	=74	=74	=74	=74	=74	=74	=74	=74	=74
!	!	!	!	!	!	!LO:TX:a:t=P:problem=klamra łukowa	!	!LO:N:vis=00	!
8d\L	.	8a\L	.	8dd\L	.	(24ff#\LL	.	1.r	.
.	.	.	.	.	.	24gg\	.	.	.
.	.	.	.	.	.	24aa\JJ)	.	.	.
8B\	6	8b\	.	8dd\	.	8gg\L	.	.	.
8B\J	5	8f#\J	.	8dd\J	.	8ff#\J	.	.	.
=75	=75	=75	=75	=75	=75	=75	=75	=75	=75
!LO:TX:a:t=P:problem=mixed beam	!	!	!	!	!	!	!	!	!
8A\L	.	8a\L	.	8dd\L	.	(8ff#\L	.	.	.
8AA/	.	8a\	.	8cc#X\	.	8ee\)	.	.	.
8AA/J	.	8cc#X\J	.	8ee\J	.	8gg\J	.	.	.
=76	=76	=76	=76	=76	=76	=76	=76	=76	=76
8D\L	.	8a\L	.	8dd\L	.	24ff#\LL	.	.	.
.	.	.	.	.	.	24gg\	.	.	.
.	.	.	.	.	.	24aa\JJ	.	.	.
8F#\	.	8a\	.	8dd\	.	8dd\L	.	.	.
8A\J	.	8g\J	.	8cc#X\J	.	8cc#X\J	.	.	.
=77	=77	=77	=77	=77	=77	=77	=77	=77	=77
8D/L	.	8f#\L	.	16dd\LL	.	16dd\LL	.	.	.
.	.	.	.	16gg#X\J	.	16gg#X\J	.	.	.
8C#X/	.	8e\	.	8aa\	.	8aa\	.	.	.
8AA/J	.	8e\J	.	8gg#\J	.	8gg#\J	.	.	.
!LO:LB:g=original	!	!	!	!	!	!	!	!	!
=78	=78	=78	=78	=78	=78	=78	=78	=78	=78
!	!	!	!	!	!	!	!	!LO:N:vis=0	!
8D\L	.	8a\L	.	16ff#\LL	.	16ff#\LL	.	2.r	.
.	.	.	.	16ccc#X\JJ	.	16ccc#X\JJ	.	.	.
8F#\	.	8a\	.	4ddd\	.	4ddd\	.	.	.
8D\J	.	8a\J	.	.	.	.	.	.	.
!	!	!LO:LB:g=original	!	!	!	!	!	!	!
=79	=79	=79	=79	=79	=79	=79	=79	=79	=79
!LO:TX:a:t=P:problem=mixed beam	!	!	!	!	!	!LO:TX:a:t=P:problem=klamra łukowa	!	!	!
8G\L	.	8d\L	.	24bb\LL	.	24bb\LL	.	.	.
.	.	.	.	24aa\	.	24aa\	.	.	.
.	.	.	.	24gg\JJ	.	24gg\JJ	.	.	.
8A\	.	8d\	.	8ff#\L	.	8ff#\L	.	.	.
8AA/J	.	8c#X\J	.	8ee\J	.	8eeT\J	.	.	.
=80	=80	=80	=80	=80	=80	=80	=80	=80	=80
!LO:TX:a:t=P:problem=mixed beam	!	!	!	!LO:TX:a:t=P:problem=mixed beam	!	!LO:TX:a:t=P:problem=mixed beam	!	!	!
8D\L	.	8d\L	.	8dd\L	.	8dd\L	.	4.r	.
8DD/J	.	8d\J	.	8d/J	.	8d/J	.	.	.
8r	.	8r	.	8r	.	8r	.	.	.
!	!	!	!	!	!	!LO:LB:g=original	!	!	!
=81	=81	=81	=81	=81	=81	=81	=81	=81	=81
!LO:N:vis=00	!	!LO:TX:a:t=P:":problem=klamra łukowa nad oznaczeniem "pia	!	!	!	!	!	!	!
!	!	!	!LO:DY:a:t=pia&colon;	!	!LO:DY:a:t=po&colon;	!	!LO:DY:a:t=po&colon;	!	!
1.r	.	8d\L	p	8f#/L	p	8.a/L	p	8.a\L	Re-
.	.	8d\	.	8f#/	.	.	.	.	.
.	.	.	.	.	.	16b/K	.	16b\Jk	.
.	.	8c#X\J	.	8e/J	.	8a/J	.	8a\	-ſo-
=82	=82	=82	=82	=82	=82	=82	=82	=82	=82
.	.	8B/L	.	8f#/L	.	8dd\L	.	8dd\	-na-
.	.	8A/	.	8f#/	.	(8dd\	.	(8dd\L	-te
.	.	8A/J	.	8e/J	.	8cc#X\J)	.	8cc#X\J)	.
=83	=83	=83	=83	=83	=83	=83	=83	=83	=83
.	.	8d\L	.	8f#/L	.	8.a/L	.	8.a\L	in-
.	.	8d\	.	8f#/	.	.	.	.	.
.	.	.	.	.	.	16b/K	.	16b\Jk	.
.	.	8c#X\J	.	8e/J	.	8a/J	.	8a\	-to-
=84	=84	=84	=84	=84	=84	=84	=84	=84	=84
!	!	!	!	!LO:TX:a:t=P:problem=mixed beam	!	!	!	!	!
.	.	8d\L	.	8f#/L	.	(8ff#\L	.	8ff#\	-na-
.	.	8a\	.	8cc#X\	.	8ee\)	.	8ee\	-te
.	.	8g\J	.	8cc#\J	.	8ee\J	.	8r	.
=85	=85	=85	=85	=85	=85	=85	=85	=85	=85
!LO:N:vis=00	!	!	!	!	!	!	!	!	!
1.r	.	8f#\L	.	8dd/L	.	8.a/L	.	8.a\	Pſal-
.	.	8f#\	.	8a/	.	.	.	.	.
.	.	.	.	.	.	16b/K	.	16b\	-li-
.	.	8d\J	.	8f#/J	.	8a/J	.	8a\	-te
=86	=86	=86	=86	=86	=86	=86	=86	=86	=86
.	.	8B/L	.	8d/L	.	8.gg\L	.	8.gg\	ca-
.	.	8B/	.	8d/	.	.	.	.	.
.	.	.	.	.	.	16ff#\K	.	16ff#\	-ni-
.	.	8c#X/J	.	8a/J	.	8ee\J	.	8ee\	-te
!	!	!	!	!	!	!	!	!LO:LB:g=original	!
=87	=87	=87	=87	=87	=87	=87	=87	=87	=87
.	.	8d\L	.	8a\L	.	16ff#\LL	.	16ff#\LL	Re-
.	.	.	.	.	.	16dd\J	.	[16dd\JJ	.
.	.	8f#\	.	8a\	.	8.dd\	.	8.dd\]	.
.	.	8g\J	.	8b\J	.	.	.	.	.
.	.	.	.	.	.	32cc#Xt\LL	.	(32cc#X\LLL	-ſo-
.	.	.	.	.	.	32dd\JJJ	.	32dd\JJJ)	.
!	!	!	!	!LO:LB:g=original	!	!	!	!	!
=88	=88	=88	=88	=88	=88	=88	=88	=88	=88
.	.	8a\L	.	8cc#X\L	.	8ee\L	.	16ee\LL	-na-
.	.	.	.	.	.	.	.	16cc#X\JJ	.
.	.	8a\	.	8cc#\	.	8ee\	.	8a\	-te
.	.	8a\J	.	8cc#\J	.	8ee\J	.	8r	.
=89	=89	=89	=89	=89	=89	=89	=89	=89	=89
!LO:N:vis=00	!	!	!	!	!	!	!	!	!
1.r	.	8f#\L	.	8a/L	.	8dd\L	.	8r	.
.	.	8f#\	.	8a/	.	8dd\	.	8dd\	Re-
.	.	8f#\J	.	8a/J	.	8dd\J	.	8a\	-ſo-
=90	=90	=90	=90	=90	=90	=90	=90	=90	=90
.	.	8g\L	.	8b\L	.	8dd\L	.	16b\LL	-na-
.	.	.	.	.	.	.	.	16cc-X\JJ	.
.	.	8g\	.	8b\	.	8dd\	.	8.dd\L	.
.	.	8g\J	.	8b\J	.	8dd\J	.	.	.
.	.	.	.	.	.	.	.	16gg\Jk	.
=91	=91	=91	=91	=91	=91	=91	=91	=91	=91
.	.	8f#\L	.	8a/L	.	8dd\L	.	16dd\LL	.
.	.	.	.	.	.	.	.	16ee\J	.
.	.	8f#\	.	8a/	.	8dd\	.	8dd\	.
.	.	8f#\J	.	8a/J	.	8dd\J	.	8cc\J	.
!	!	!LO:LB:g=original	!	!	!	!	!	!	!
=92	=92	=92	=92	=92	=92	=92	=92	=92	=92
!	!	!	!	!	!	!	!	!LO:TX:a:t=P:problem=klamra łukowa, brak oznaczenia trioli	!
*	*	*	*	*	*	*	*	*Xtuplet	*
.	.	8g\L	.	8b/L	.	8dd\L	.	24b\LL	.
.	.	.	.	.	.	.	.	24a\	.
.	.	.	.	.	.	.	.	24g\JJ	.
.	.	8f#\	.	8a/	.	8dd\	.	8dd\L	.
.	.	8d\J	.	8a/J	.	8dd\J	.	8cc\J	.
=93	=93	=93	=93	=93	=93	=93	=93	=93	=93
!LO:N:vis=00	!	!	!	!	!	!	!	!	!
1.r	.	8g\L	.	8b/L	.	8dd\L	.	8b\	-te
.	.	8g#X\	.	8b/	.	8ee\	.	8ee\	In-
.	.	8g#\J	.	8b/J	.	8ee\J	.	8b\	-to-
!	!	!	!	!	!	!LO:LB:g=original	!	!	!
=94	=94	=94	=94	=94	=94	=94	=94	=94	=94
.	.	8a\L	.	8cc#X\L	.	8ee\L	.	16cc#X\LL	-na-
.	.	.	.	.	.	.	.	16dd\JJ	.
.	.	8a\	.	8cc#\	.	8ee\	.	8.ee\L	.
.	.	8cc#X\J	.	8a\J	.	8ee\J	.	.	.
.	.	.	.	.	.	.	.	16aa\Jk	.
=95	=95	=95	=95	=95	=95	=95	=95	=95	=95
.	.	8dd\L	.	8dd\L	.	8ff#\L	.	8ff#\L	.
.	.	8a\	.	8ee\	.	8gg\	.	8cc#X\J	.
.	.	8d\J	.	8ff#\J	.	8aa\J	.	8dd\	-te
!	!	!	!	!	!	!	!	!LO:LB:g=original	!
=96	=96	=96	=96	=96	=96	=96	=96	=96	=96
.	.	8g\L	.	8b/L	.	8dd\L	.	8.b\	Pſal-
.	.	8g\	.	8b/	.	8dd\	.	.	.
.	.	.	.	.	.	.	.	16cc\	-li-
.	.	8e\J	.	8g/J	.	8dd\J	.	8dd\	-te
=97	=97	=97	=97	=97	=97	=97	=97	=97	=97
!LO:N:vis=00	!	!	!	!	!	!	!	!	!
1.r	.	8a\L	.	8cc#X\L	.	8ee\L	.	8.cc#X\	ca-
.	.	8a\	.	8cc#\	.	8ee\	.	.	.
.	.	.	.	.	.	.	.	16dd\	-ni-
.	.	8f#\J	.	8a\J	.	16ee\L	.	8ee\	-te
.	.	.	.	.	.	16ff#\JJ	.	.	.
=98	=98	=98	=98	=98	=98	=98	=98	=98	=98
.	.	8b\L	.	8dd\L	.	8gg\L	.	8gg\L	quis
.	.	8b\	.	8dd\	.	8ff#\	.	8ff#\J	.
.	.	8cc#X\J	.	8a\J	.	8ee\J	.	8ee\	ut
=99	=99	=99	=99	=99	=99	=99	=99	=99	=99
.	.	8dd\L	.	8a\L	.	8ff#\L	.	8ff#\L	De-
.	.	8a\	.	8cc#X\	.	8ee\	.	8ee\J	.
.	.	8f#\J	.	8a\J	.	8dd\J	.	8dd\	-us
=100	=100	=100	=100	=100	=100	=100	=100	=100	=100
!	!	!LO:TX:a:t=P:problem=mixed beam	!	!	!	!	!	!	!
.	.	8g\L	.	8b/L	.	16ee\LL	.	16ee\LL	no-
.	.	.	.	.	.	16gg\J	.	16b\JJ	.
.	.	.	.	.	.	.	.	8qqdd/	.
.	.	8a\	.	8a/	.	8ff#\	.	4cc#X\	-biſ-
.	.	8A/J	.	8g/J	.	8ee\J	.	.	.
=101	=101	=101	=101	=101	=101	=101	=101	=101	=101
!LO:N:vis=00	!	!	!	!	!	!	!	!	!
1.r	.	8d\L	.	8a/L	.	8ff#\L	.	16dd\	-cum,
.	.	.	.	.	.	.	.	16dd\	hac
.	.	8f#\	.	8f#/	.	8dd\	.	8a\	du-
.	.	8d\J	.	8f#/J	.	8cc-X\J	.	8cc-X\	-cis
=102	=102	=102	=102	=102	=102	=102	=102	=102	=102
.	.	8g\L	.	8d/L	.	8.b\L	.	8.b\	Theſ-
.	.	8a\	.	8d/	.	.	.	.	.
.	.	.	.	.	.	16cc\K	.	16cc\	-sera,
.	.	8b\J	.	8g/J	.	8dd\J	.	8dd\	.
!	!	!	!	!LO:LB:g=original	!	!	!	!	!
=103	=103	=103	=103	=103	=103	=103	=103	=103	=103
!	!	!LO:TX:a:t=P:problem=mixed beam	!	!	!	!	!	!	!
.	.	8cc\L	.	8g/L	.	8ee\L	.	16ee\LL	Or-
.	.	.	.	.	.	.	.	16dd\JJ	.
.	.	8c/	.	8g/	.	8ee\	.	16cc\LL	-cum
.	.	.	.	.	.	.	.	16b\JJ	.
.	.	8c#X/J	.	8g/J	.	8ee\J	.	16a\LL	et
.	.	.	.	.	.	.	.	16g\JJ	.
!	!	!LO:LB:g=original	!	!	!	!	!	!LO:LB:g=original	!
=104	=104	=104	=104	=104	=104	=104	=104	=104	=104
.	.	8d\L	.	8a/L	.	8ff#\L	.	16f#/	ſy-
.	.	.	.	.	.	.	.	16g/	-de-
.	.	8d\	.	8a/	.	8ff#\	.	8.a\L	-ra
.	.	8d\J	.	8a/J	.	8ff#\J	.	.	.
.	.	.	.	.	.	.	.	(16cc\Jk	.
=105	=105	=105	=105	=105	=105	=105	=105	=105	=105
!LO:N:vis=00	!	!	!	!	!	!	!	!	!
1.r	.	8g\L	.	8b/L	.	16gg\LL	.	16b\LL)	.
.	.	.	.	.	.	16dd\	.	16cc\J	.
.	.	8g\	.	8b/	.	16b\	.	8dd\J	.
.	.	.	.	.	.	16dd\	.	.	.
.	.	8g\J	.	8b/J	.	16b\	.	8r	.
.	.	.	.	.	.	16g\JJ	.	.	.
=106	=106	=106	=106	=106	=106	=106	=106	=106	=106
.	.	8b\L	.	8g/L	.	8dd\L	.	8gg\	E-
.	.	8g\	.	8g/	.	8dd\	.	8dd\	-jus
.	.	8cc\J	.	8g/J	.	16ee\L	.	8ee\	Vi-
.	.	.	.	.	.	16gg\JJ	.	.	.
!	!	!	!	!	!	!LO:LB:g=original	!	!	!
=107	=107	=107	=107	=107	=107	=107	=107	=107	=107
.	.	8dd\L	.	8a/L	.	16cc\LL	.	8cc\	-ciſ-
.	.	.	.	.	.	16ff#\	.	.	.
.	.	8g\	.	8b/	.	16gg\	.	8b\	-tis
.	.	.	.	.	.	16dd\	.	.	.
.	.	8g\J	.	8d/J	.	16b\	.	8r	.
.	.	.	.	.	.	16g\JJ	.	.	.
=108	=108	=108	=108	=108	=108	=108	=108	=108	=108
.	.	8f#\L	.	8d/L	.	8ee\L	.	8d/	Un-
.	.	8f#\	.	8d/	.	8ee\	.	8cc\	-de
.	.	8f#\J	.	8d/J	.	8ee\J	.	8a\	fe-
=109	=109	=109	=109	=109	=109	=109	=109	=109	=109
!LO:N:vis=00	!	!	!	!LO:TX:a:t=P:problem=mixed beam	!	!LO:TX:a:t=P:problem= brak 2 taktów	!	!	!
1.r	.	8g\L	.	8d/L	.	4.ryy	.	8b\	-ci-
.	.	8g\	.	8b\	.	.	.	8g\	-stis
.	.	8g\J	.	8b\J	.	.	.	8r	.
=110	=110	=110	=110	=110	=110	=110	=110	=110	=110
.	.	8c\L	.	8g/L	.	4.ryy	.	4ee\	Ve-
.	.	8c\	.	8g/	.	.	.	.	.
.	.	8c\J	.	8g/J	.	.	.	8ee\	-rum
=111	=111	=111	=111	=111	=111	=111	=111	=111	=111
!	!	!	!	!LO:LB:g=original	!	!	!	!	!
.	.	8d/L	.	8a/L	.	8ff#\L	.	4ff#\	lu-
.	.	8c/	.	8a/	.	8ff#\	.	.	.
.	.	8B/J	.	8dd\J	.	8gg\J	.	8gg\	-men
=112	=112	=112	=112	=112	=112	=112	=112	=112	=112
.	.	8c/L	.	8g/L	.	8ee\L	.	8ee\L	o-
.	.	8B/	.	8g/	.	8dd\	.	8dd\	.
.	.	8A/J	.	8f#/J	.	8cc\J	.	8cc\J	.
!	!	!	!	!	!	!	!	!LO:LB:g=original	!
=113	=113	=113	=113	=113	=113	=113	=113	=113	=113
!	!	!	!	!	!	!LO:TX:a:t=P:problem=klamra łukowa	!	!	!
4.r	.	8d\L	.	8g/L	.	(24b/LL	.	24b\LL	.
.	.	.	.	.	.	24a/	.	24a\	.
.	.	.	.	.	.	24g/JJ)	.	24g\JJ	.
.	.	8d\	.	8b/	.	8g/L	.	4a\	-ri-
.	.	8d\J	.	8a/J	.	8f#/J	.	.	.
.	.	.	.	.	.	.	.	8qqb/	.
=114	=114	=114	=114	=114	=114	=114	=114	=114	=114
!	!	!	!	!	!LO:DY:a:t=fo&colon;	!	!LO:DY:a:t=fo&colon;	!	!
8G\L	.	8B/L	.	16g\LL	f	16g/LL	f	4g/	-ri
.	.	.	.	16b\	.	16b/	.	.	.
8G\	.	8B/	.	16dd\	.	16dd/	.	.	.
.	.	.	.	(16b\	.	(16b/	.	.	.
8G\J	.	8B/J	.	16a\	.	16a/	.	8r	.
.	.	.	.	16g\JJ)	.	16g/JJ)	.	.	.
=115	=115	=115	=115	=115	=115	=115	=115	=115	=115
!	!	!	!	!	!	!	!	!LO:N:vis=00	!
8F#\L	.	8A/L	.	16f#/LL	.	16f#/LL	.	1.r	.
.	.	.	.	16a/JJ	.	16a/JJ	.	.	.
8F#\	.	8d/	.	4dd\	.	4dd\	.	.	.
8F#\J	.	8A/J	.	.	.	.	.	.	.
=116	=116	=116	=116	=116	=116	=116	=116	=116	=116
8E\L	6	8G/L	.	16e/LL	.	16e/LL	.	.	.
.	.	.	.	16g/	.	16g/	.	.	.
8E\	.	8G/	.	16cc/	.	16cc/	.	.	.
.	.	.	.	(16g/	.	(16g/	.	.	.
8E\J	.	8G/J	.	16f#/	.	16f#/	.	.	.
.	.	.	.	16e/JJ)	.	16e/JJ)	.	.	.
!	!	!LO:LB:g=original	!	!LO:LB:g=original	!	!	!	!	!
=117	=117	=117	=117	=117	=117	=117	=117	=117	=117
8D\L	6	8f#\L	.	16d/LL	.	16d/LL	.	.	.
.	.	.	.	16f#/JJ	.	16f#/JJ	.	.	.
8D\	.	8f#\	.	4b/	.	4b\	.	.	.
8D\J	.	8f#\J	.	.	.	.	.	.	.
=118	=118	=118	=118	=118	=118	=118	=118	=118	=118
8C/L	.	8e\L	.	8r	.	8r	.	.	.
8C/	.	8g\	.	8ee\L	.	8ee\L	.	.	.
8C/J	.	8e\J	.	8cc\J	.	8cc\J	.	.	.
=119	=119	=119	=119	=119	=119	=119	=119	=119	=119
!	!	!	!	!	!	!	!	!LO:N:vis=00	!
8BB/L	.	8g\L	.	16dd\LL	.	16dd\LL	.	1.r	.
.	.	.	.	16ff#\JJ	.	16ff#\JJ	.	.	.
8BB/	.	8d\	.	4gg\	.	4gg\	.	.	.
8BB/J	.	8d\J	.	.	.	.	.	.	.
=120	=120	=120	=120	=120	=120	=120	=120	=120	=120
!LO:TX:a:t=P:problem=mixed beam	!	!	!	!	!	!	!	!	!
8AA/L	.	8e\L	.	(8cc\L	.	8cc\L	.	.	.
8D\	6 4	8g\	.	8b\	.	8b\	.	.	.
8DD/J	6	8f#\J	.	8a\J)	.	8a\J	.	.	.
!LO:LB:g=original	!	!	!	!	!	!	!	!	!
=121	=121	=121	=121	=121	=121	=121	=121	=121	=121
8GG/L	.	8d\L	.	8b\L	.	8b\L	.	.	.
8D/	.	8f#\	.	8a\	.	8a\	.	.	.
8BB/J	.	8a\J	.	[>8dd\J	.	[8dd\J	.	.	.
!	!	!	!	!	!	!LO:LB:g=original	!	!	!
=122	=122	=122	=122	=122	=122	=122	=122	=122	=122
!	!	!	!	!LO:N:xstem:cue	!	!	!	!	!
8BB/L	.	8g\L	.	16dd/LL]	.	16dd\LL]	.	.	.
.	.	.	.	16cc/	.	16cc\	.	.	.
8BB/	.	8g\	.	16b/	.	16b\	.	.	.
.	.	.	.	16a/	.	16a\	.	.	.
8BB/J	.	8g\J	.	16g/	.	16g\	.	.	.
.	.	.	.	[16f-X/JJ	.	[16f-X\JJ	.	.	.
=123	=123	=123	=123	=123	=123	=123	=123	=123	=123
!	!	!	!	!LO:TX:a:t=P:problem=mixed beam	!	!LO:TX:a:t=P:problem=mixed beam	!	!LO:N:vis=00	!
8C/L	4 2	8d\L	.	8f-/L]	.	8f-/L]	.	1.r	.
8C/	.	8g\	.	8e/	.	8e/	.	.	.
8C/J	.	8g\J	.	[>8ee\J	.	[>8ee\J	.	.	.
=124	=124	=124	=124	=124	=124	=124	=124	=124	=124
!	!	!	!	!LO:N:xstem:cue	!	!LO:N:xstem:cue	!	!	!
8C/L	.	8a\L	.	16ee\LL]	.	16ee\LL]	.	.	.
.	.	.	.	16dd\	.	16dd\	.	.	.
8C/	.	8a\	.	16cc\	.	16cc\	.	.	.
.	.	.	.	16b\	.	16b\	.	.	.
8C/J	.	8a\J	.	16a\	.	16a\	.	.	.
.	.	.	.	16g\JJ	.	[16g\JJ	.	.	.
=125	=125	=125	=125	=125	=125	=125	=125	=125	=125
!	!	!	!	!LO:TX:a:t=P:problem=mixed beam	!	!LO:TX:a:t=P:problem=mixed beam	!	!	!
8D\L	4 2	8e\L	.	8g/L	.	8g/L]	.	.	.
.	3	.	.	.	.	.	.	.	.
8BB\	.	8a\	.	8f#/	.	8f#/	.	.	.
8F#\J	.	8a\J	.	16dd\L	.	16dd\L	.	.	.
.	.	.	.	16cc\JJ	.	16cc\JJ	.	.	.
=126	=126	=126	=126	=126	=126	=126	=126	=126	=126
!	!	!	!	!LO:TX:a:t=P:problem=klamra łukowa	!	!LO:TX:a:t=P:problem=klamra łukowa	!	!	!
8G\L	.	8d\L	.	(24b/LL	.	(24b/LL	.	.	.
.	.	.	.	24a/	.	24a/	.	.	.
.	.	.	.	24g/JJ)	.	24g/JJ)	.	.	.
8B\	.	8d\	.	8g/L	.	8g/L	.	.	.
8d\J	.	8A\J	.	8f#/J	.	8f#/J	.	.	.
=127	=127	=127	=127	=127	=127	=127	=127	=127	=127
!LO:TX:a:t=P:problem=mixed beam	!	!	!	!LO:TX:a:t=P:problem=mixed beam	!	!LO:TX:a:t=P:problem=mixed beam	!	!LO:N:vis=00	!
8GG/L	.	8B/L	.	8g/L	.	8g/L	.	1.r	.
8E\	6	8c/	.	8gg\	.	(8gg\	.	.	.
8D\J	6	8B/J	.	8ff#\J	.	8ff#\J)	.	.	.
=128	=128	=128	=128	=128	=128	=128	=128	=128	=128
!LO:TX:a:t=P:problem=mixed beam	!	!	!	!	!	!	!	!	!
8C/L	.	8e\L	.	8r	.	8r	.	.	.
8c\	.	8g\	.	(8ee\L	.	(8ee\L	.	.	.
8B\J	.	8g\J	.	8dd\J)	.	8dd\J)	.	.	.
=129	=129	=129	=129	=129	=129	=129	=129	=129	=129
!LO:TX:a:t=P:problem=mixed beam	!	!	!	!	!	!	!	!	!
8AA/L	.	8c\L	.	8r	.	8r	.	.	.
8A\	.	8f#\	.	(8cc\L	.	8cc\L	.	.	.
8G\J	.	8d\J	.	8b\J)	.	[8b\J	.	.	.
!	!	!	!	!LO:LB:g=original	!	!	!	!	!
=130	=130	=130	=130	=130	=130	=130	=130	=130	=130
8D\L	6 4	8g\L	.	8b/L	.	8b/L]	.	.	.
8D\	5	8f#\	.	8a/	.	8a/	.	.	.
8F#\J	.	8a\J	.	8cc/J	.	8cc/J	.	.	.
!	!	!LO:LB:g=original	!	!	!	!	!	!	!
=131	=131	=131	=131	=131	=131	=131	=131	=131	=131
!	!	!	!	!LO:TX:a:t=P:problem=klamra łukowa	!	!	!	!LO:N:vis=00	!
8G\L	.	8d\L	.	(24b/LL	.	(24b/LL	.	1.r	.
.	.	.	.	24a/	.	24a/	.	.	.
.	.	.	.	24g/JJ)	.	24g/JJ)	.	.	.
8F#\	.	8d\	.	8a/L	.	8a/L	.	.	.
8D\J	.	8f#\J	.	8cc/J	.	8cc/J	.	.	.
=132	=132	=132	=132	=132	=132	=132	=132	=132	=132
!	!	!	!	!LO:TX:a:t=P:problem=klamra łukowa	!	!LO:TX:a:t=P:problem=klamra łukowa	!	!	!
8G\L	.	8d\L	.	(24b\LL	.	(24b\LL	.	.	.
.	.	.	.	24cc\	.	24cc\	.	.	.
.	.	.	.	24dd\JJ)	.	24dd\JJ)	.	.	.
8E\	6	8g\	.	8cc\L	.	8cc\L	.	.	.
8C#X\J	.	16e\L	.	[8b\J	.	[8b\J	.	.	.
.	.	[16g\JJ	.	.	.	.	.	.	.
!LO:LB:g=original	!	!	!	!	!	!	!	!	!
=133	=133	=133	=133	=133	=133	=133	=133	=133	=133
8D\L	.	8g\L]	.	8b/L]	.	8b/L]	.	.	.
8D\	.	8f#\	.	8a/	.	8a/	.	.	.
8F#\J	.	8a\J	.	8cc/J	.	8cc/J	.	.	.
!	!	!	!	!	!	!LO:LB:g=original	!	!	!
=134	=134	=134	=134	=134	=134	=134	=134	=134	=134
!	!	!	!	!LO:TX:a:t=P:problem=klamra łukowa	!	!	!	!	!
8G\L	.	8d\L	.	(24b/LL	.	24b/LL	.	.	.
.	.	.	.	24a/	.	24a/	.	.	.
.	.	.	.	24g/JJ)	.	24g/JJ	.	.	.
8B\	.	8d\	.	8g/L	.	8g/L	.	.	.
8d\J	.	8A\J	.	8f#/J	.	8f#/J	.	.	.
=135	=135	=135	=135	=135	=135	=135	=135	=135	=135
!	!	!	!	!	!	!	!	!LO:N:vis=00	!
8G\L	.	8d\L	.	16g\LL	.	16g/LL	.	1.r	.
.	.	.	.	16cc#X\JJ	.	16cc#X/JJ	.	.	.
8F#\	.	8a\	.	8dd\L	.	8dd\L	.	.	.
8D\J	.	8f#\J	.	8cc#\J	.	8cc#\J	.	.	.
=136	=136	=136	=136	=136	=136	=136	=136	=136	=136
4G\	.	8d\L	.	16b\LL	.	16b\LL	.	.	.
.	.	.	.	16ff#\JJ	.	16ff#X\JJ	.	.	.
.	.	8d\	.	4gg\	.	4gg\	.	.	.
8B\	.	8d\J	.	.	.	.	.	.	.
=137	=137	=137	=137	=137	=137	=137	=137	=137	=137
!LO:TX:a:t=P:problem=mixed beam	!	!	!	!LO:TX:a:t=P:problem=klamra łukowa	!	!	!	!	!
8c\L	.	8g\L	.	(24ee\LL	.	24ee\LL	.	.	.
.	.	.	.	24dd\	.	24dd\	.	.	.
.	.	.	.	24cc\JJ)	.	24cc\JJ	.	.	.
8d\	.	8g\	.	8b/L	.	8b/L	.	.	.
8D/J	.	8f#\J	.	8a/J	.	8aT/J	.	.	.
=138	=138	=138	=138	=138	=138	=138	=138	=138	=138
!LO:TX:a:t=P:problem=mixed beam	!	!LO:TX:a:t=P:problem=mixed beam	!	!	!	!	!	!	!
8G\L	.	8g\L	.	8g/L	.	8g/L	.	.	.
8GG;;/J	.	8G;;/J	.	8G;;/J	.	8G;;/J	.	.	.
*>B	*	*>B	*	*>B	*	*>B	*	*	*
8r	.	8r	.	8r	.	8r	.	.	.
=139	=139	=139	=139	=139	=139	=139	=139	=139;;	=139
!LO:N:vis=00	!	!	!	!	!	!	!LO:DY:a:t=po&colon;	!	!
1.r	.	8e\L	.	8g/L	.	8b\L	p	4ee\	Er-
.	.	8e\	.	8g/	.	8b\	.	.	.
.	.	8e\J	.	8g/J	.	8b\J	.	8b\	-go
=140	=140	=140	=140	=140	=140	=140	=140	=140	=140
.	.	8e\L	.	8a/L	.	8cc\L	.	8cc\L	ce-
.	.	8d#X\	.	8f#/	.	8b\	.	8b\J	.
.	.	8d#\J	.	8f#/J	.	8a\J	.	8a\	-le
=141	=141	=141	=141	=141	=141	=141	=141	=141	=141
.	.	8e\L	.	8b\L	.	16g/LL	.	8g/	bra-
.	.	.	.	.	.	16e/	.	.	.
.	.	8g\	.	8b\	.	16g/	.	8e/	-mus
.	.	.	.	.	.	16b/	.	.	.
.	.	8e\J	.	8g\J	.	16ee/	.	8r	.
.	.	.	.	.	.	16dd/JJ	.	.	.
=142	=142	=142	=142	=142	=142	=142	=142	=142	=142
!	!	!LO:TX:a:t=P:problem=mixed beam	!	!LO:TX:a:t=P:problem=mixed beam	!	!	!	!	!
.	.	8a\L	.	8e/L	.	8cc\L	.	8r	.
.	.	8A/	.	8e/	.	8a\J	.	8cc\	Deo
.	.	8a\J	.	8cc\J	.	8r	.	8a\	.
!	!	!LO:LB:g=original	!	!	!	!	!	!	!
=143	=143	=143	=143	=143	=143	=143	=143	=143	=143
!LO:N:vis=00	!	!	!	!	!	!LO:TX:a:t=P:problem=poprawiane nuty	!	!	!
1.r	.	8g#X\L	.	8b\L	.	8dd\L	.	8ff-X\L	cul-
.	.	8g#\	.	8b\	.	8dd\	.	8ee\J	.
.	.	8g#\J	.	8b\J	.	8dd\J	.	8dd\	-tum
!	!	!	!	!	!	!	!	!LO:LB:g=original	!
=144	=144	=144	=144	=144	=144	=144	=144	=144	=144
.	.	8a\L	.	8e/L	.	8cc#X\L	.	16cc#X\LL	da-
.	.	.	.	.	.	.	.	16ee\JJ	.
.	.	8a\	.	8e/	.	8cc#\	.	8a\L	.
.	.	8a\J	.	8e/J	.	8cc#\J	.	8cc#\J	.
=145	=145	=145	=145	=145	=145	=145	=145	=145	=145
!	!	!LO:TX:a:t=P:problem=mixed beam	!	!LO:TX:a:t=P:problem=mixed beam	!	!	!	!	!
.	.	8d\L	.	8f#/L	.	16dd\LL	.	16dd\LL	.
.	.	.	.	.	.	16aa\J	.	16ff#\J	.
.	.	8a\	.	8cc#X\	.	8gg\	.	8ee\	.
.	.	8A/J	.	8cc#\J	.	8ee\J	.	8cc#X\J	.
!	!	!	!	!	!	!LO:LB:g=original	!	!	!
=146	=146	=146	=146	=146	=146	=146	=146	=146	=146
.	.	8d\L	.	8a/L	.	16ff#\	.	8dd\	-mus
.	.	.	.	.	.	4dd\	.	.	.
.	.	8f#\	.	8a/	.	.	.	8r	.
.	.	8a\J	.	8e/J	.	.	.	8r	.
.	.	.	.	.	.	16cc#X\	.	.	.
=147	=147	=147	=147	=147	=147	=147	=147	=147	=147
!LO:N:vis=00	!	!	!	!	!	!	!	!	!
1.r	.	8d\L	.	8a/L	.	8dd\L	.	8ff#\	Tam
.	.	8c#X\	.	8e/	.	8a\	.	8ee\	fes-
.	.	8B\J	.	8g#X/J	.	8b\J	.	8dd\	-tam
=148	=148	=148	=148	=148	=148	=148	=148	=148	=148
.	.	8A/L	.	8e/L	.	8cc#X\L	.	16ee\LL	lu-
.	.	.	.	.	.	.	.	16cc#X\JJ	.
.	.	8A/	.	8e/	.	8cc#\	.	8a\	-cem
.	.	8A/J	.	8e/J	.	8cc#\J	.	8r	.
=149	=149	=149	=149	=149	=149	=149	=149	=149	=149
.	.	8A#X/L	.	8e/L	.	8cc\L	.	8gg\	Qua(e)
.	.	8A#/	.	8f#/	.	8cc\	.	16ff#\LL	ve-
.	.	.	.	.	.	.	.	16ee\JJ	.
.	.	8A#/J	.	8f#/J	.	8cc\J	.	16dd\LL	-strum
.	.	.	.	.	.	.	.	16cc\JJ	.
=150	=150	=150	=150	=150	=150	=150	=150	=150	=150
!	!	!LO:TX:a:t=P:problem=mixed beam	!	!LO:TX:a:t=P:problem=mixed beam	!	!	!LO:DY:a:t=fo&colon;	!	!
.	.	8B/L	.	16f#/LL	.	16dd\LL	f	8dd\	du-
.	.	.	.	(16ee\	.	(16gg\	.	.	.
.	.	8f#\	.	16dd\	.	16ff#\	.	8b\	-cem
.	.	.	.	16cc#X\	.	16ee\	.	.	.
.	.	8f#\J	.	16b\	.	16dd\	.	8r	.
.	.	.	.	16a#X\JJ)	.	16cc\JJ)	.	.	.
=151	=151	=151	=151	=151	=151	=151	=151	=151	=151
!	!	!	!	!	!	!LO:TX:a:t=P:problem=klamra łukowa	!	!LO:N:vis=00	!
8BB/L	-	8d\L	.	8f#/L	.	(24dd\LL	.	1.r	.
.	.	.	.	.	.	24cc#X\	.	.	.
.	.	.	.	.	.	24b\JJ)	.	.	.
8D/	6	8f#\	.	8f#/	.	8b\L	.	.	.
8F#/J	#	8c#X\J	.	8e/J	.	8a#X\J	.	.	.
=152	=152	=152	=152	=152	=152	=152	=152	=152	=152
8B\L	-	8d\L	.	8f#/L	.	16b\LL	.	.	.
.	.	.	.	.	.	16ee\JJ	.	.	.
8B\	#	8f#\	.	8an/	.	4dd#X\	.	.	.
8B\J	.	8f#\J	.	8a/J	.	.	.	.	.
=153	=153	=153	=153	=153	=153	=153	=153	=153	=153
8G\L	6	8e\L	.	(16b/LL	.	16ee\LL	.	.	.
.	.	.	.	16a/	.	(16ccn\	.	.	.
8E\	.	8g\	.	16g/	.	16b\	.	.	.
.	.	.	.	16f#/	.	16a\	.	.	.
8B\J	#	8f#\J	.	16e/)	.	16g\	.	.	.
.	.	.	.	16d#X/JJ	.	16f#\JJ)	.	.	.
=154	=154	=154	=154	=154	=154	=154	=154	=154	=154
!	!	!	!	!	!	!LO:TX:a:t=P:problem=mixed beam	!	!	!
8E\L	.	8b\L	.	8e/L	.	16g/LL	.	.	.
.	.	.	.	.	.	16e/J	.	.	.
8G\	.	8g\	.	8b/	.	8ee\	.	.	.
8B\J	.	8a\J	.	8f#/J	.	8dd#X\J	.	.	.
!	!	!	!	!LO:LB:g=original	!	!	!	!	!
=155	=155	=155	=155	=155	=155	=155	=155	=155	=155
!LO:TX:a:t=P:problem=mixed beam	!	!	!	!	!	!	!LO:DY:a:t=po&colon;	!	!
8E\L	.	8g\L	.	8g/L	.	8ee\L	p	8r	.
8EE/J	.	8e\	.	8g/	.	8b\	.	8b\	Illis,
8r	.	8e\J	.	8g/J	.	8b\J	.	8ee\	.
!LO:LB:g=original	!	!LO:LB:g=original	!	!	!	!	!	!LO:LB:g=original	!
=156	=156	=156	=156	=156	=156	=156	=156	=156	=156
!LO:N:vis=00	!	!	!	!	!	!	!	!	!
1.r	.	8a\L	.	8e/L	.	8ccn\L	.	4cc\	tra-
.	.	8a\	.	8e/	.	8cc\	.	.	.
.	.	8a\J	.	8e/J	.	8cc\J	.	8cc\	-vit
=157	=157	=157	=157	=157	=157	=157	=157	=157	=157
.	.	8d\L	.	8f#/L	.	8a/L	.	8r	.
.	.	8d\	.	8f#/	.	8a/	.	8a\	Et
.	.	8d\J	.	8f#/J	.	8a/J	.	8dd\	Be-
!	!	!	!	!	!	!LO:LB:g=original	!	!	!
=158	=158	=158	=158	=158	=158	=158	=158	=158	=158
.	.	8g\L	.	8d/L	.	8b\L	.	4b\	-a-
.	.	8g\	.	8d/	.	8b\	.	.	.
.	.	8g\J	.	8d/J	.	8b\J	.	8b\	-vit
=159	=159	=159	=159	=159	=159	=159	=159	=159	=159
.	.	8e\L	.	8g/L	.	8b\L	.	16r	.
.	.	.	.	.	.	.	.	16b\	Ac-
.	.	8e\	.	8g/	.	8b\	.	8b\	-cen-
.	.	8e\J	.	8g/J	.	8b\J	.	8b\	-dit
=160	=160	=160	=160	=160	=160	=160	=160	=160	=160
!LO:N:vis=00	!	!	!	!	!	!	!	!	!
1.r	.	8a\L	.	8e/L	.	8ccn\L	.	16r	.
.	.	.	.	.	.	.	.	16cc\	de-
.	.	8a\	.	8e/	.	8cc\	.	8cc\	-fen-
.	.	8a\J	.	8e/J	.	8cc\J	.	8cc\	-dit
=161	=161	=161	=161	=161	=161	=161	=161	=161	=161
.	.	8f#\L	.	8a/L	.	8dd#X\L	.	16r	.
.	.	.	.	.	.	.	.	16dd#X\	Ac-
.	.	8f#\	.	8a/	.	8dd#\	.	8dd#\	-cen-
.	.	8f#\J	.	8a/J	.	8dd#\J	.	8dd#\	-dit
=162	=162	=162	=162	=162	=162	=162	=162	=162	=162
.	.	8g\L	.	8b\L	.	8ee\L	.	16r	.
.	.	.	.	.	.	.	.	16ee\	de-
.	.	8g\	.	8b\	.	8ee\	.	8ee\	-fen-
.	.	8g\J	.	8b\J	.	8ee\J	.	8ee\	-dit
=163	=163	=163	=163	=163	=163	=163	=163	=163	=163
.	.	8a\L	.	8cc\L	.	8ee\L	.	8.cc\	Vin-
.	.	8a\	.	8cc\	.	8ee\	.	.	.
.	.	.	.	.	.	.	.	16cc\	-ce-
.	.	8a\J	.	8cc\J	.	8ee\J	.	8cc\	-ret
!	!	!	!	!	!	!	!	!LO:LB:g=original	!
=164	=164	=164	=164	=164	=164	=164	=164	=164	=164
!LO:N:vis=00	!	!	!	!	!	!	!	!	!
1.r	.	8f#\L	.	8a/L	.	8dd#X\L	.	8.dd#X\	vin-
.	.	8g\	.	8e/	.	8b\	.	.	.
.	.	.	.	.	.	.	.	16ee\	-ce-
.	.	8a\J	.	8e/J	.	8b\J	.	8ee\	-ret
=165	=165	=165	=165	=165	=165	=165	=165	=165	=165
.	.	8a\L	.	8f#/L	.	8cc\L	.	16ff#\LL	ut
.	.	.	.	.	.	.	.	16ee\JJ	.
.	.	8f#\	.	8a/	.	8a\	.	8.ee\	tar-
.	.	8b\J	.	8f#/J	.	8b\J	.	.	.
.	.	.	.	.	.	.	.	16dd#X\	-ta-
=166	=166	=166	=166	=166	=166	=166	=166	=166	=166
!	!	!	!	!LO:TX:a:t=P:problem=mixed beam	!LO:DY:a:t=fo&colon;	!LO:TX:a:t=P:problem=mixed beam	!LO:DY:a:t=fo&colon;	!	!
.	.	16e`\LL	.	16e/LL	.	16e/LL	f	8ee\	-ra
.	.	16ee`\	.	16ee\	.	16ee\	.	.	.
.	.	16dd`\	.	16dd\	.	16dd\	.	8r	.
.	.	16cc`\	.	16cc\	.	16cc\	.	.	.
.	.	16b`\	.	16b\	.	16b\	.	8r	.
.	.	16a`\JJ	.	16a\JJ	.	16a\JJ	.	.	.
=167	=167	=167	=167	=167	=167	=167	=167	=167	=167
.	.	8g`\L	.	8b`\L	.	8g`\L	.	16ee\LL	ut
.	.	.	.	.	.	.	.	16cc#X\JJ	.
.	.	8a`\	.	8a`\	.	8a`\	.	8.dd#X\	tar-
.	.	8b`\J	.	8b`\J	.	8b`\J	.	.	.
.	.	.	.	.	.	.	.	16ee\	-ta-
=168	=168	=168	=168	=168	=168	=168	=168	=168	=168
!	!	!	!	!LO:TX:a:t=P:problem=mixed beam	!	!LO:TX:a:t=P:problem=mixed beam	!	!	!
4.r	.	8ee`\L	.	8ee`\L	.	8ee/L	.	4ee\	-ra
.	.	8e`\J	.	8e`/J	.	8e/J	.	.	.
.	.	8r	.	8r	.	8r	.	8r	.
!LO:TX:a:t=Da Capo Usq(ue) ad Signu(m) [podwójna fermata] Finis	!	!LO:TX:a:t=Da Capo Usq(e) ad [podwójna fermata] Finis	!	!LO:TX:a:t=Da Capo Usq(ue) ad Signu(m) [podwójna fermata] Finis	!	!LO:TX:a:t=Da Capo usq(ue) ad signu(m) [podwójna fermata]	!	!LO:TX:a:t=Da Capo usque ad Signum [podwójna fermata] Finis	!
==	==	==	==	==	==	==	==	==	==
*-	*-	*-	*-	*-	*-	*-	*-	*-	*-
!!!system-decoration: [(g1)][(g2)][(g3)]
!!!RDF**kern: >= above
!!!RDF**kern: <= below
!!!ENC: Anna Matuszewska
!!!END: 2020-11-21
!!!ENC: Andrzej Gręziak
!!!END: 2020-05-25
!!!YEC: Copyright 2022 Narodowy Instytut Fryderyka Chopina (https://polishscores.org)
!!!YEM: License CC-BY-4.0 (https://creativecommons.org/licenses/by/4.0)
